polaris-icons/icons/TwitterMinor.svg

<svg xmlns="http://www.w3.org/2000/svg" viewBox="0 0 20 20"><path fill-rule="evenodd" fill="#5C5F62" d="M15 6.25C15.5839 6.17883 16.2355 5.96475 16.75 5.73667C16.7004 5.81084 16.6534 5.88237 16.6079 5.95158C16.3015 6.41799 16.0645 6.77857 15.5728 7.125C15.5792 7.24633 15.5833 7.6605 15.5833 7.78417C15.5833 11.5478 12.6999 15.5833 7.41667 15.5833C5.795 15.5833 4.0205 15.2082 2.75 14.4032C2.9153 14.4226 3.0272 14.4207 3.16756 14.4184C3.2179 14.4176 3.2719 14.4167 3.33333 14.4167C4.67967 14.4167 6.43317 14.0124 7.41667 13.25C6.15958 13.2255 4.32383 12.6287 3.95867 11.5C4.84985 11.5 5.21836 11.3506 5.45225 11.2557C5.51352 11.2309 5.56556 11.2098 5.61533 11.1961C4.30225 10.9347 3.33333 9.99733 3.33333 8.61658V8.58333C3.72125 8.79275 4.61258 9.15208 5.08333 9.16667C4.31158 8.6545 3.33683 7.57767 3.33683 6.51658C3.33683 5.99625 3.47683 5.50392 3.72592 5.08333C5.14167 6.80592 7.41667 8.58333 9.75 8.58333V7.41667C9.75 5.84458 10.8566 4.5 12.4432 4.5C13.2692 4.5 14.0147 4.74617 14.5374 5.30033C15.1919 5.17433 16.1952 4.82608 16.75 4.5C16.5359 5.16383 15.5938 5.89767 15 6.25Z"/></svg>

<svg xmlns="http://www.w3.org/2000/svg" viewBox="0 0 20 20"><path fill-rule="evenodd" d="M15 6.25c.584-.071 1.235-.285 1.75-.513-.05.074-.097.145-.142.215-.306.466-.544.827-1.035 1.173.006.121.01.535.01.66 0 3.763-2.883 7.798-8.166 7.798-1.622 0-3.396-.375-4.667-1.18.165.02.277.018.418.015l.165-.001c1.347 0 3.1-.405 4.084-1.167-1.257-.024-3.093-.621-3.458-1.75.89 0 1.26-.15 1.493-.244.062-.025.114-.046.163-.06-1.313-.261-2.282-1.199-2.282-2.58v-.033c.388.21 1.28.57 1.75.584-.771-.512-1.746-1.59-1.746-2.65 0-.52.14-1.013.389-1.434 1.416 1.723 3.69 3.5 6.024 3.5v-1.166c0-1.572 1.107-2.917 2.693-2.917.826 0 1.572.246 2.094.8.655-.126 1.658-.474 2.213-.8-.214.664-1.156 1.398-1.75 1.75Z"/></svg>
